.github/readme-header.svg

<svg fill="none" height="300" viewBox="0 0 800 300" width="800" xmlns="http://www.w3.org/2000/svg" xmlns:xlink="http://www.w3.org/1999/xlink"><mask id="a" height="220" maskUnits="userSpaceOnUse" width="678" x="59" y="39"><path d="m.285492 93.7587c-1.082163-28.2519-1.623242-42.3778 6.317558-53.4985 2.4904-3.4877 5.77815-6.7802 9.26235-9.2755 11.1095-7.9566 27.7904-7.3412 61.1521-6.1106 58.9595 2.1748 148.5755 1.1879 252.2375-14.4156 112.526-16.93752 218.906-10.054281 285.29-1.99576 27.199 3.30186 40.799 4.95276 50.514 14.52446 2.947 2.904 5.84 6.8843 7.693 10.584 6.106 12.1946 3.319 26.4573-2.254 54.9825l-13.209 67.6073c-5.399 27.634-8.099 41.45-16.593 50.043-2.817 2.85-5.824 5.11-9.346 7.024-10.615 5.77-24.956 4.492-53.639 1.937-59.565-5.305-149.581-11.378-230.112-8.917-87.512 2.674-196.955 8.495-263.1789 12.263-25.2471 1.436-37.8706 2.155-47.9945-3.465-3.221-1.787-6.3623-4.163-8.9592-6.776-8.1622-8.213-10.815-20.143-16.1205-44.003-3.24545-14.596-6.36798-29.725-8.47932-42.448-1.408-8.485-2.201264-18.144-2.581088-28.0603z" fill="#ff6f6f" transform="translate(60 39)"/></mask><g mask="url(#a)"><path d="m0 0h821.73v821.013h-821.73z" fill="#ff8080" fill-opacity=".15" transform="translate(31.126 -385.15)"/><path d="m41.1453 147.406c-32.44595-18.792-37.03071-102.1857-35.26734-141.53323h-5.87796l5.87796-5.87277 350.91004 5.87277c-43.104 61.85983-133.428 186.51923-149.886 190.27723-20.573 4.699-125.1992-25.253-165.7567-48.744z" fill="#deccca" transform="translate(130.493 -74)"/><path d="m324.7 61.6792c-12.09 10.3759-24.18 17.8696-40.875 27.0927-31.088 17.8701-92.689 47.8451-146.23 80.1251-24.756-44.962-53.5414-106.6414-76.5698-168.897l-45.481 18.4461c26.4826 62.2556 56.4195 129.1229 82.9022 175.8149-61.0253 42.656-98.4464 89.348-98.4464 148.145 0 85.313 77.7208 117.594 184.803 117.594 71.388 0 137.019-6.341 180.197-13.835v-51.879c-44.33 11.529-120.323 19.599-182.5 19.599-89.8107 0-134.7161-29.399-134.7161-76.667 0-43.233 31.664-80.702 84.6291-115.288 55.844-36.892 135.292-74.361 173.289-93.96 16.696-8.647 31.088-16.14 43.754-24.211z" fill="#ff8f8f" transform="matrix(-1 0 0 -1 232 622)"/><path d="m306.634 58.1228c-11.417 9.7776-22.834 16.8392-38.601 25.5305-29.358 16.8397-87.532 45.0857-138.094 75.5057-23.378-42.37-50.562-100.493-72.3092-159.159l-42.9505 17.3825c25.0092 58.666 53.2804 121.6775 78.2896 165.6775-57.6298 40.197-92.9689 84.196-92.9689 139.603 0 80.394 73.3965 110.813 174.521 110.813 67.416 0 129.395-5.975 170.171-13.037v-48.888c-41.863 10.864-113.629 18.469-172.346 18.469-84.8139 0-127.2207-27.703-127.2207-72.246 0-40.74 29.9022-76.048 79.9207-108.641 52.737-34.765 127.764-70.073 163.647-88.542 15.767-8.148 29.359-15.21 41.319-22.8144z" fill="#73d2ff" opacity=".5" transform="matrix(-1 0 0 -1 179.692 143.32)"/><path clip-rule="evenodd" d="m95.5 191c52.743 0 95.5-42.757 95.5-95.5 0-52.7432-42.757-95.5-95.5-95.5-52.7432 0-95.5 42.7568-95.5 95.5 0 52.743 42.7568 95.5 95.5 95.5zm0-36.515c32.577 0 58.985-26.408 58.985-58.985 0-32.5767-26.408-58.9853-58.985-58.9853-32.5767 0-58.9854 26.4086-58.9854 58.9853 0 32.577 26.4087 58.985 58.9854 58.985z" fill="#ff8f8f" fill-rule="evenodd" transform="translate(583 166)"/></g><path d="m10.5496 191.813c-25.0236-43.833-1.00098-90.954 25.0236-135.8829 67.0628-56.98314 192.1808-65.74976 222.2098-47.12067 30.028 18.62907 72.067 78.89967 69.065 140.26657-3.003 61.366-61.058 93.145-89.084 94.241-28.027 1.096-122.115 30.683-148.14 30.683-26.0245 0-54.0508-38.354-79.0744-82.187z" fill="#292723" transform="translate(232 12)"/><g clip-rule="evenodd" fill="#fff" fill-rule="evenodd"><path d="m10.7099 30.947v-23.96056h-7.23775c-1.90724 0-3.47215-1.57441-3.47215-3.49322s1.56491-3.49322 3.47215-3.49322h22.00665c1.9072 0 3.4721 1.57441 3.4721 3.49322s-1.5649 3.49322-3.4721 3.49322h-7.2378v23.96056c0 2.1156-1.6627 3.7884-3.7655 3.7884-2.1029 0-3.7656-1.6728-3.7656-3.7884z" transform="matrix(.984233 .176875 -.170477 .985362 452.135 128.844)"/><path d="m3.76378 34.4559c-2.10185 0-3.76378-1.6736-3.76378-3.7902v-26.87555c0-2.11658 1.66193-3.79015 3.76378-3.79015h18.96552c2.6884 0 3.3728 1.5259 3.3728 3.39637 0 1.87046-1.5153 3.34714-3.3728 3.34714h-15.25062v6.98959h13.05102c1.8575 0 3.3727 1.5259 3.3727 3.3964s-1.5152 3.3471-3.3727 3.3471h-13.05102v7.2358h15.49502c1.8575 0 3.3728 1.5259 3.3728 3.3964 0 1.8704-1.5153 3.3471-3.3728 3.3471z" transform="matrix(.998519 .0544118 -.0538413 .99855 416.173 139.215)"/><path d="m0 31.2553v-27.46529c0-2.1165 1.662-3.79001 3.76393-3.79001 2.10194 0 3.76394 1.67351 3.76394 3.79001v11.56689l13.88253-13.88027c.9288-.9352 1.8575-1.47663 3.1774-1.47663 2.1019 0 3.4706 1.62429 3.4706 3.49469 0 1.1813-.5377 2.06728-1.3687 2.85481l-9.6298 9.0567 10.5097 13.2896c.5866.7383 1.0265 1.5259 1.0265 2.6579 0 2.1165-1.6131 3.6916-3.8128 3.6916-1.4665 0-2.3463-.7383-3.1773-1.8212l-9.7765-12.8958-4.30163 4.0361v6.8909c0 2.1165-1.662 3.79-3.76394 3.79-2.10193 0-3.76393-1.6735-3.76393-3.79z" transform="matrix(.996048 -.0888139 .0855281 .996336 372.079 131.383)"/><path d="m0 17.919c0 9.7963 7.57568 17.722 18.1326 17.722 10.5571 0 18.2304-8.0241 18.2304-17.919 0-9.79631-7.5756-17.722-18.1325-17.722-10.55716 0-18.2305 8.02414-18.2305 17.919zm28.4941-.0001c0 5.9074-4.2031 10.7317-10.2636 10.7317-6.0606 0-10.3616-4.9228-10.3616-10.8301v-.0985c0-5.9073 4.2034-10.73167 10.2637-10.73167 6.0605 0 10.3615 4.92277 10.3615 10.83017z" transform="translate(323.832 140.786)"/><path d="m0 17.9068c.00007812 9.7897 7.58084 17.7101 18.1453 17.7101 10.5644 0 18.2434-8.0188 18.2432-17.9068.0002-9.7898-7.5808-17.71008668-18.1452-17.7101-10.56448-.00001332-18.24325882 8.01871-18.2433 17.9068zm28.5138-.0001c0 5.9034-4.206 10.7244-10.2709 10.7244-6.0648 0-10.36879-4.9194-10.36881-10.8228l-.00012-.0983c-.00001-5.9034 4.20623-10.72446 10.27113-10.72446 6.0648-.00003 10.3688 4.91946 10.3688 10.82276z" transform="matrix(.980936 .194331 -.187346 .982294 482.305 140.786)"/><path d="m.00015592 3.78387-.00015592 27.12533c.00001884 2.1131 1.66483 3.7838 3.77035 3.7838s3.77041-1.6707 3.77038-3.7838l.00001-6.8305h5.72896c7.6875.0001 13.8571-4.1277 13.8573-12.1867-.0001-7.02708-4.9455-11.89195472-13.1228-11.89195345l-10.2339-.00004655c-2.10552.00000004-3.77016292 1.67081-3.77014408 3.78387zm13.51404408 13.56253h-5.97372l.00008-10.51602h5.82694c3.7702-.00002 6.1205 1.81818 6.1207 5.20892l-.0001.0982c0 2.9484-2.2034 5.2089-5.9739 5.2089z" transform="matrix(.949303 -.314362 .303744 .952754 285 143.343)"/></g><g fill="#5270f4" opacity=".5"><ellipse cx="589.56923" cy="21.56611" rx="3.56923" ry="3.56611"/><ellipse cx="602.95423" cy="21.56611" rx="3.56923" ry="3.56611"/><ellipse cx="616.33823" cy="21.56611" rx="3.56923" ry="3.56611"/><ellipse cx="629.72323" cy="21.56611" rx="3.56923" ry="3.56611"/><ellipse cx="643.10723" cy="21.56611" rx="3.56923" ry="3.56611"/><ellipse cx="656.49223" cy="21.56611" rx="3.56923" ry="3.56611"/><ellipse cx="589.56923" cy="34.93901" rx="3.56923" ry="3.56611"/><ellipse cx="602.95423" cy="34.93901" rx="3.56923" ry="3.56611"/><ellipse cx="616.33823" cy="34.93901" rx="3.56923" ry="3.56611"/><ellipse cx="629.72323" cy="34.93901" rx="3.56923" ry="3.56611"/><ellipse cx="643.10723" cy="34.93901" rx="3.56923" ry="3.56611"/><ellipse cx="656.49223" cy="34.93901" rx="3.56923" ry="3.56611"/><ellipse cx="589.56923" cy="48.31191" rx="3.56923" ry="3.56611"/><ellipse cx="602.95423" cy="48.31191" rx="3.56923" ry="3.56611"/><ellipse cx="616.33823" cy="48.31191" rx="3.56923" ry="3.56611"/><ellipse cx="629.72323" cy="48.31191" rx="3.56923" ry="3.56611"/><ellipse cx="643.10723" cy="48.31191" rx="3.56923" ry="3.56611"/><ellipse cx="656.49223" cy="48.31191" rx="3.56923" ry="3.56611"/><ellipse cx="589.56923" cy="61.68491" rx="3.56923" ry="3.56611"/><ellipse cx="602.95423" cy="61.68491" rx="3.56923" ry="3.56611"/><ellipse cx="616.33823" cy="61.68491" rx="3.56923" ry="3.56611"/><ellipse cx="629.72323" cy="61.68491" rx="3.56923" ry="3.56611"/><ellipse cx="643.10723" cy="61.68491" rx="3.56923" ry="3.56611"/><ellipse cx="656.49223" cy="61.68491" rx="3.56923" ry="3.56611"/><ellipse cx="589.56923" cy="75.05781" rx="3.56923" ry="3.56611"/><ellipse cx="602.95423" cy="75.05781" rx="3.56923" ry="3.56611"/><ellipse cx="616.33823" cy="75.05781" rx="3.56923" ry="3.56611"/><ellipse cx="629.72323" cy="75.05781" rx="3.56923" ry="3.56611"/><ellipse cx="643.10723" cy="75.05781" rx="3.56923" ry="3.56611"/><ellipse cx="656.49223" cy="75.05781" rx="3.56923" ry="3.56611"/><ellipse cx="589.56923" cy="88.43071" rx="3.56923" ry="3.56611"/><ellipse cx="602.95423" cy="88.43071" rx="3.56923" ry="3.56611"/><ellipse cx="616.33823" cy="88.43071" rx="3.56923" ry="3.56611"/><ellipse cx="629.72323" cy="88.43071" rx="3.56923" ry="3.56611"/><ellipse cx="643.10723" cy="88.43071" rx="3.56923" ry="3.56611"/><ellipse cx="656.49223" cy="88.43071" rx="3.56923" ry="3.56611"/></g></svg>

<svg width="800" height="300" viewBox="0 0 800 300" fill="none" xmlns="http://www.w3.org/2000/svg">
<g id="github">
<g id="Group 3">
<mask id="mask0" mask-type="alpha" maskUnits="userSpaceOnUse" x="59" y="39" width="678" height="220">
<path id="Rectangle" d="M0.285492 93.7587C-0.796671 65.5068 -1.33775 51.3809 6.60305 40.2602C9.09345 36.7725 12.3812 33.48 15.8654 30.9847C26.9749 23.0281 43.6558 23.6435 77.0175 24.8741C135.977 27.0489 225.593 26.062 329.255 10.4585C441.781 -6.47902 548.161 0.404219 614.545 8.46274C641.744 11.7646 655.344 13.4155 665.059 22.9872C668.006 25.8912 670.899 29.8715 672.752 33.5712C678.858 45.7658 676.071 60.0285 670.498 88.5537L657.289 156.161C651.89 183.795 649.19 197.611 640.696 206.204C637.879 209.054 634.872 211.314 631.35 213.228C620.735 218.998 606.394 217.72 577.711 215.165C518.146 209.86 428.13 203.787 347.599 206.248C260.087 208.922 150.644 214.743 84.4201 218.511C59.173 219.947 46.5495 220.666 36.4256 215.046C33.2046 213.259 30.0633 210.883 27.4664 208.27C19.3042 200.057 16.6514 188.127 11.3459 164.267C8.10045 149.671 4.97792 134.542 2.86658 121.819C1.45858 113.334 0.665316 103.675 0.285492 93.7587Z" transform="translate(60 39)" fill="#FF6F6F"/>
</mask>
<g mask="url(#mask0)">
<rect id="image" width="821.73" height="821.013" transform="translate(31.126 -385.15)" fill="#FF8080" fill-opacity="0.15"/>
<path id="Vector" d="M41.1453 147.406C8.69935 128.614 4.11459 45.2203 5.87796 5.87277H0L5.87796 0L356.788 5.87277C313.684 67.7326 223.36 192.392 206.902 196.15C186.329 200.849 81.7028 170.897 41.1453 147.406Z" transform="translate(130.493 -74)" fill="#DECCCA"/>
<path id="&#227;&#129;&#189;&#227;&#129;&#145;&#227;&#129;&#168;" d="M324.7 61.6792C312.61 72.0551 300.52 79.5488 283.825 88.7719C252.737 106.642 191.136 136.617 137.595 168.897C112.839 123.935 84.0536 62.2556 61.0252 0L15.5442 18.4461C42.0268 80.7017 71.9637 147.569 98.4464 194.261C37.4211 236.917 0 283.609 0 342.406C0 427.719 77.7208 460 184.803 460C256.191 460 321.822 453.659 365 446.165V394.286C320.67 405.815 244.677 413.885 182.5 413.885C92.6893 413.885 47.7839 384.486 47.7839 337.218C47.7839 293.985 79.4479 256.516 132.413 221.93C188.257 185.038 267.705 147.569 305.702 127.97C322.398 119.323 336.79 111.83 349.456 103.759L324.7 61.6792Z" transform="translate(232 622) rotate(180)" fill="#FF8F8F"/>
<path id="&#227;&#129;&#189;&#227;&#129;&#145;&#227;&#129;&#168;_2" opacity="0.5" d="M306.634 58.1228C295.217 67.9004 283.8 74.962 268.033 83.6533C238.675 100.493 180.501 128.739 129.939 159.159C106.561 116.789 79.377 58.666 57.6298 0L14.6793 17.3825C39.6885 76.0485 67.9597 139.06 92.9689 183.06C35.3391 223.257 0 267.256 0 322.663C0 403.057 73.3965 433.476 174.521 433.476C241.937 433.476 303.916 427.501 344.692 420.439V371.551C302.829 382.415 231.063 390.02 172.346 390.02C87.5321 390.02 45.1253 362.317 45.1253 317.774C45.1253 277.034 75.0275 241.726 125.046 209.133C177.783 174.368 252.81 139.06 288.693 120.591C304.46 112.443 318.052 105.381 330.012 97.7766L306.634 58.1228Z" transform="translate(179.692 143.32) rotate(180)" fill="#73D2FF"/>
<path id="Subtract" fill-rule="evenodd" clip-rule="evenodd" d="M95.5 191C148.243 191 191 148.243 191 95.5C191 42.7568 148.243 0 95.5 0C42.7568 0 0 42.7568 0 95.5C0 148.243 42.7568 191 95.5 191ZM95.5 154.485C128.077 154.485 154.485 128.077 154.485 95.5C154.485 62.9233 128.077 36.5147 95.5 36.5147C62.9233 36.5147 36.5146 62.9233 36.5146 95.5C36.5146 128.077 62.9233 154.485 95.5 154.485Z" transform="translate(583 166)" fill="#FF8F8F"/>
</g>
</g>
<path id="Vector_2" d="M10.5496 191.813C-14.474 147.98 9.54862 100.859 35.5732 55.9301C102.636 -1.05304 227.754 -9.81966 257.783 8.80943C287.811 27.4385 329.85 87.7091 326.848 149.076C323.845 210.442 265.79 242.221 237.764 243.317C209.737 244.413 115.649 274 89.624 274C63.5995 274 35.5732 235.646 10.5496 191.813Z" transform="translate(232 12)" fill="#292723"/>
<g id="Group">
<path id="POKETO" fill-rule="evenodd" clip-rule="evenodd" d="M10.7099 30.947V6.98644H3.47215C1.56491 6.98644 0 5.41203 0 3.49322C0 1.57441 1.56491 0 3.47215 0H25.4788C27.386 0 28.9509 1.57441 28.9509 3.49322C28.9509 5.41203 27.386 6.98644 25.4788 6.98644H18.241V30.947C18.241 33.0626 16.5783 34.7354 14.4755 34.7354C12.3726 34.7354 10.7099 33.0626 10.7099 30.947Z" transform="matrix(0.984233 0.176875 -0.170477 0.985362 452.135 128.844)" fill="white"/>
<path id="Path" fill-rule="evenodd" clip-rule="evenodd" d="M3.76378 34.4559C1.66193 34.4559 0 32.7823 0 30.6657V3.79015C0 1.67357 1.66193 0 3.76378 0H22.7293C25.4177 0 26.1021 1.5259 26.1021 3.39637C26.1021 5.26683 24.5868 6.74351 22.7293 6.74351H7.47868V13.7331H20.5297C22.3872 13.7331 23.9024 15.259 23.9024 17.1295C23.9024 19 22.3872 20.4766 20.5297 20.4766H7.47868V27.7124H22.9737C24.8312 27.7124 26.3465 29.2383 26.3465 31.1088C26.3465 32.9792 24.8312 34.4559 22.9737 34.4559H3.76378Z" transform="matrix(0.998519 0.0544118 -0.0538413 0.99855 416.173 139.215)" fill="white"/>
<path id="Path_2" fill-rule="evenodd" clip-rule="evenodd" d="M0 31.2553V3.79001C0 1.67351 1.662 0 3.76393 0C5.86587 0 7.52787 1.67351 7.52787 3.79001V15.3569L21.4104 1.47663C22.3392 0.54143 23.2679 0 24.5878 0C26.6897 0 28.0584 1.62429 28.0584 3.49469C28.0584 4.67599 27.5207 5.56197 26.6897 6.3495L17.0599 15.4062L27.5696 28.6958C28.1562 29.4341 28.5961 30.2217 28.5961 31.3537C28.5961 33.4702 26.983 35.0453 24.7833 35.0453C23.3168 35.0453 22.437 34.307 21.606 33.2241L11.8295 20.3283L7.52787 24.3644V31.2553C7.52787 33.3718 5.86587 35.0453 3.76393 35.0453C1.662 35.0453 0 33.3718 0 31.2553Z" transform="matrix(0.996048 -0.0888139 0.0855281 0.996336 372.079 131.383)" fill="white"/>
<path id="Combined Shape" fill-rule="evenodd" clip-rule="evenodd" d="M0 17.919C0 27.7153 7.57568 35.641 18.1326 35.641C28.6897 35.641 36.363 27.6169 36.363 17.722C36.363 7.92569 28.7874 0 18.2305 0C7.67334 0 0 8.02414 0 17.919ZM28.4941 17.9189C28.4941 23.8263 24.291 28.6506 18.2305 28.6506C12.1699 28.6506 7.8689 23.7278 7.8689 17.8205V17.722C7.8689 11.8147 12.0723 6.99033 18.1326 6.99033C24.1931 6.99033 28.4941 11.9131 28.4941 17.8205V17.9189Z" transform="translate(323.832 140.786)" fill="white"/>
<path id="Combined Shape_2" fill-rule="evenodd" clip-rule="evenodd" d="M0 17.9068C7.81174e-05 27.6965 7.58084 35.6169 18.1453 35.6169C28.7097 35.6169 36.3887 27.5981 36.3885 17.7101C36.3887 7.9203 28.8077 1.33162e-05 18.2433 0C7.67882 -1.33162e-05 4.11811e-05 8.01871 0 17.9068ZM28.5138 17.9067C28.5138 23.8101 24.3078 28.6311 18.2429 28.6311C12.1781 28.6311 7.87411 23.7117 7.87409 17.8083L7.87397 17.71C7.87396 11.8066 12.0802 6.98554 18.1451 6.98554C24.2099 6.98551 28.5139 11.905 28.5139 17.8083L28.5138 17.9067Z" transform="matrix(0.980936 0.194331 -0.187346 0.982294 482.305 140.786)" fill="white"/>
<path id="Combined Shape_3" fill-rule="evenodd" clip-rule="evenodd" d="M0.00015592 3.78387L0 30.9092C1.88408e-05 33.0223 1.66483 34.693 3.77035 34.693C5.87587 34.693 7.54076 33.0223 7.54073 30.9092L7.54074 24.0787L13.2697 24.0787C20.9572 24.0788 27.1268 19.951 27.127 11.892C27.1269 4.86492 22.1815 4.52768e-05 14.0042 4.65493e-05L3.7703 0C1.66478 4.15374e-08 0.000137079 1.67081 0.00015592 3.78387ZM13.5142 17.3464L7.54048 17.3464L7.54056 6.83038L13.3675 6.83038C17.1377 6.83036 19.488 8.64856 19.4882 12.0393L19.4881 12.1375C19.4881 15.0859 17.2847 17.3464 13.5142 17.3464Z" transform="matrix(0.949303 -0.314362 0.303744 0.952754 285 143.343)" fill="white"/>
</g>
<g id="Group 2" style="mix-blend-mode:multiply" opacity="0.5">
<ellipse id="Ellipse" cx="3.56923" cy="3.56611" rx="3.56923" ry="3.56611" transform="translate(586 18)" fill="#5270F4"/>
<ellipse id="Ellipse_2" cx="3.56923" cy="3.56611" rx="3.56923" ry="3.56611" transform="translate(599.385 18)" fill="#5270F4"/>
<ellipse id="Ellipse_3" cx="3.56923" cy="3.56611" rx="3.56923" ry="3.56611" transform="translate(612.769 18)" fill="#5270F4"/>
<ellipse id="Ellipse_4" cx="3.56923" cy="3.56611" rx="3.56923" ry="3.56611" transform="translate(626.154 18)" fill="#5270F4"/>
<ellipse id="Ellipse_5" cx="3.56923" cy="3.56611" rx="3.56923" ry="3.56611" transform="translate(639.538 18)" fill="#5270F4"/>
<ellipse id="Ellipse_6" cx="3.56923" cy="3.56611" rx="3.56923" ry="3.56611" transform="translate(652.923 18)" fill="#5270F4"/>
<ellipse id="Ellipse_7" cx="3.56923" cy="3.56611" rx="3.56923" ry="3.56611" transform="translate(586 31.3729)" fill="#5270F4"/>
<ellipse id="Ellipse_8" cx="3.56923" cy="3.56611" rx="3.56923" ry="3.56611" transform="translate(599.385 31.3729)" fill="#5270F4"/>
<ellipse id="Ellipse_9" cx="3.56923" cy="3.56611" rx="3.56923" ry="3.56611" transform="translate(612.769 31.3729)" fill="#5270F4"/>
<ellipse id="Ellipse_10" cx="3.56923" cy="3.56611" rx="3.56923" ry="3.56611" transform="translate(626.154 31.3729)" fill="#5270F4"/>
<ellipse id="Ellipse_11" cx="3.56923" cy="3.56611" rx="3.56923" ry="3.56611" transform="translate(639.538 31.3729)" fill="#5270F4"/>
<ellipse id="Ellipse_12" cx="3.56923" cy="3.56611" rx="3.56923" ry="3.56611" transform="translate(652.923 31.3729)" fill="#5270F4"/>
<ellipse id="Ellipse_13" cx="3.56923" cy="3.56611" rx="3.56923" ry="3.56611" transform="translate(586 44.7458)" fill="#5270F4"/>
<ellipse id="Ellipse_14" cx="3.56923" cy="3.56611" rx="3.56923" ry="3.56611" transform="translate(599.385 44.7458)" fill="#5270F4"/>
<ellipse id="Ellipse_15" cx="3.56923" cy="3.56611" rx="3.56923" ry="3.56611" transform="translate(612.769 44.7458)" fill="#5270F4"/>
<ellipse id="Ellipse_16" cx="3.56923" cy="3.56611" rx="3.56923" ry="3.56611" transform="translate(626.154 44.7458)" fill="#5270F4"/>
<ellipse id="Ellipse_17" cx="3.56923" cy="3.56611" rx="3.56923" ry="3.56611" transform="translate(639.538 44.7458)" fill="#5270F4"/>
<ellipse id="Ellipse_18" cx="3.56923" cy="3.56611" rx="3.56923" ry="3.56611" transform="translate(652.923 44.7458)" fill="#5270F4"/>
<ellipse id="Ellipse_19" cx="3.56923" cy="3.56611" rx="3.56923" ry="3.56611" transform="translate(586 58.1188)" fill="#5270F4"/>
<ellipse id="Ellipse_20" cx="3.56923" cy="3.56611" rx="3.56923" ry="3.56611" transform="translate(599.385 58.1188)" fill="#5270F4"/>
<ellipse id="Ellipse_21" cx="3.56923" cy="3.56611" rx="3.56923" ry="3.56611" transform="translate(612.769 58.1188)" fill="#5270F4"/>
<ellipse id="Ellipse_22" cx="3.56923" cy="3.56611" rx="3.56923" ry="3.56611" transform="translate(626.154 58.1188)" fill="#5270F4"/>
<ellipse id="Ellipse_23" cx="3.56923" cy="3.56611" rx="3.56923" ry="3.56611" transform="translate(639.538 58.1188)" fill="#5270F4"/>
<ellipse id="Ellipse_24" cx="3.56923" cy="3.56611" rx="3.56923" ry="3.56611" transform="translate(652.923 58.1188)" fill="#5270F4"/>
<ellipse id="Ellipse_25" cx="3.56923" cy="3.56611" rx="3.56923" ry="3.56611" transform="translate(586 71.4917)" fill="#5270F4"/>
<ellipse id="Ellipse_26" cx="3.56923" cy="3.56611" rx="3.56923" ry="3.56611" transform="translate(599.385 71.4917)" fill="#5270F4"/>
<ellipse id="Ellipse_27" cx="3.56923" cy="3.56611" rx="3.56923" ry="3.56611" transform="translate(612.769 71.4917)" fill="#5270F4"/>
<ellipse id="Ellipse_28" cx="3.56923" cy="3.56611" rx="3.56923" ry="3.56611" transform="translate(626.154 71.4917)" fill="#5270F4"/>
<ellipse id="Ellipse_29" cx="3.56923" cy="3.56611" rx="3.56923" ry="3.56611" transform="translate(639.538 71.4917)" fill="#5270F4"/>
<ellipse id="Ellipse_30" cx="3.56923" cy="3.56611" rx="3.56923" ry="3.56611" transform="translate(652.923 71.4917)" fill="#5270F4"/>
<ellipse id="Ellipse_31" cx="3.56923" cy="3.56611" rx="3.56923" ry="3.56611" transform="translate(586 84.8646)" fill="#5270F4"/>
<ellipse id="Ellipse_32" cx="3.56923" cy="3.56611" rx="3.56923" ry="3.56611" transform="translate(599.385 84.8646)" fill="#5270F4"/>
<ellipse id="Ellipse_33" cx="3.56923" cy="3.56611" rx="3.56923" ry="3.56611" transform="translate(612.769 84.8646)" fill="#5270F4"/>
<ellipse id="Ellipse_34" cx="3.56923" cy="3.56611" rx="3.56923" ry="3.56611" transform="translate(626.154 84.8646)" fill="#5270F4"/>
<ellipse id="Ellipse_35" cx="3.56923" cy="3.56611" rx="3.56923" ry="3.56611" transform="translate(639.538 84.8646)" fill="#5270F4"/>
<ellipse id="Ellipse_36" cx="3.56923" cy="3.56611" rx="3.56923" ry="3.56611" transform="translate(652.923 84.8646)" fill="#5270F4"/>
</g>
</g>
</svg>
